lib/brands/logos/office-depot.svg

<svg xmlns="http://www.w3.org/2000/svg" fill="none" aria-hidden="true" viewBox="0 0 156 75"><g id="Office Depot"><g id="Union"><path fill="#BC242A" d="M59.4225 11.3632C60.4054 11.3632 61.5507 11.5285 62.8139 11.7886L63.3298 6.01753C61.6427 5.74738 60.0347 5.64966 58.543 5.64966C50.3952 5.64966 46.7825 8.77374 46.7825 14.9601V16.9317H41.4842V22.4067H46.7839V34.9131C45.0969 35.0654 43.3121 35.2724 41.8348 35.5051V40.1194H60.2919V35.5051C58.8204 35.2724 57.0342 35.0654 55.3715 34.9131V22.4067H61.3208V16.9317H55.3715V14.8681C55.3715 12.3936 56.8474 11.3632 59.4225 11.3632Z"/><path fill="#BC242A" fill-rule="evenodd" d="M3.89999 24.7476C3.89999 34.6401 9.66531 40.7287 21.4862 40.7287C32.0727 40.7287 40.4376 34.2377 40.4391 23.8984C40.4391 12.8405 32.9148 8.04086 22.837 8.04086C12.4503 8.04086 3.89999 14.5189 3.89999 24.7476ZM13.2564 24.1814C13.2564 17.5654 17.5589 14.6569 22.1631 14.6569C28.0103 14.6569 31.0841 17.9951 31.0855 24.3165C31.0855 31.5059 26.1637 34.0667 22.0251 34.0667C15.958 34.0667 13.2564 30.2097 13.2564 24.1814Z" clip-rule="evenodd"/><path fill="#BC242A" d="M84.6045 11.7886C83.2954 11.5285 82.1357 11.3632 81.1859 11.3632C78.5834 11.3632 77.1249 12.3936 77.1249 14.8681V16.9317H83.0138V22.4067H77.1249V34.9131C78.7918 35.0654 80.5651 35.2724 82.0466 35.5051V40.1194H63.6226V35.5051C65.1243 35.2724 66.8315 35.0654 68.5401 34.9131V22.4067H63.2303V16.9317H68.5372V14.9601C68.5372 8.77374 72.1729 5.64966 80.2978 5.64966C81.7952 5.64966 83.4118 5.74738 85.0874 6.01753L84.6045 11.7886Z"/><path fill="#BC242A" d="M85.0382 35.5052V40.1166H103.086V35.5037C101.79 35.2709 100.123 35.064 98.5548 34.9117V16.9145C93.7896 16.7564 89.1208 16.9317 85.0382 17.3341V21.9009C86.6721 21.9555 88.6149 22.1553 89.9241 22.332V34.9131C88.2586 35.0654 86.5241 35.2724 85.0382 35.5052Z"/><path fill="#BC242A" d="M89.0044 10.32C89.0044 12.6494 91.3798 14.519 94.2524 14.519C97.1623 14.519 99.5248 12.612 99.5248 10.32C99.5248 7.96328 97.1623 6.1239 94.2524 6.1239C91.3798 6.1239 89.0044 7.96328 89.0044 10.32Z"/><path fill="#BC242A" d="M116.804 40.5778C107.759 40.5778 102.819 36.7639 102.819 29.2584C102.819 22.2659 107.296 16.4776 118.031 16.4776C120.139 16.4776 122.465 16.7549 124.476 17.2291V25.1729H118.94C118.805 24.5831 118.698 24.0214 118.597 23.4896C118.537 23.1715 118.479 22.864 118.417 22.5676C118.001 22.4153 117.427 22.4053 116.878 22.4053C113.891 22.4053 111.752 24.5953 111.752 28.4048C111.752 32.3681 113.694 34.4345 118.725 34.4345C120.487 34.4345 122.465 34.1098 124.109 33.5091L124.694 39.6595C122.133 40.2545 119.801 40.5778 116.804 40.5778Z"/><path fill="#BC242A" fill-rule="evenodd" d="M135.109 30.2715H151.853C152.017 29.1492 152.103 28.1519 152.1 27.1762C152.1 21.0789 148.379 16.3684 139.9 16.3684C131.216 16.3684 126.399 21.6508 126.399 28.7713C126.399 36.8976 131.47 40.6583 140.722 40.6583C144.169 40.6583 147.951 40.1165 151.11 39.0503L150.329 33.6701C147.716 34.64 144.84 35.1272 142.061 35.1272C137.421 35.1272 135.189 33.3783 135.109 30.2715ZM135.189 25.5509C135.397 23.1611 137.199 21.5646 139.677 21.5646C142.173 21.5646 143.755 22.9671 143.66 25.5509H135.189Z" clip-rule="evenodd"/><path fill="#BC242A" fill-rule="evenodd" d="M22.6429 68.1801C20.5539 68.1801 17.6497 68.0968 15.5012 68.0352L15.4967 68.0351C14.2376 67.9989 13.2386 67.9703 12.8165 67.9703H8.75695V63.8073C9.94249 63.5687 11.3881 63.3862 12.8165 63.3302V48.835C11.3881 48.7976 9.94249 48.6438 8.75695 48.47V44.1862H12.588C13.6854 44.1862 15.1092 44.1661 16.7333 44.1431H16.7349C18.8917 44.1125 21.4021 44.077 23.9707 44.077C33.0814 44.077 39.4445 46.928 39.4445 55.5343C39.4445 63.6233 32.7523 68.1801 22.6429 68.1801ZM23.5209 49.6067C22.5193 49.6067 22.0091 49.6067 21.374 49.7015V62.4134C21.7232 62.478 22.3339 62.491 23.3456 62.491C27.1623 62.491 30.2016 60.4791 30.2016 56.0244C30.203 52.3341 29.233 49.6067 23.5209 49.6067Z" clip-rule="evenodd"/><path fill="#BC242A" d="M39.2122 63.8072V67.9703H62.1772V61.304H55.4045C55.3502 61.5719 55.3101 61.7554 55.2727 61.9266C55.221 62.1631 55.1744 62.3761 55.1027 62.7553H51.7933V58.1296H54.5754L54.6015 58.235C54.684 58.5688 54.7165 58.7005 54.88 59.0536H60.5404V52.5985H54.88C54.7004 53.0382 54.6788 53.1144 54.5754 53.5714H51.7933V49.371H55.0826C55.1775 49.8639 55.2263 50.0967 55.3858 50.6916H62.0364V44.1862H39.2122V48.47C40.3949 48.6438 41.8276 48.7976 43.2229 48.835V63.3302C41.8276 63.3862 40.3949 63.5658 39.2122 63.8072Z"/><path fill="#BC242A" fill-rule="evenodd" d="M78.4365 60.6731C78.2468 60.6731 77.7223 60.6731 77.1202 60.6501V63.3301C78.5213 63.3862 79.9353 63.5658 81.1582 63.8072V67.9703H64.5635V63.8072C65.7778 63.5658 67.1861 63.3862 68.5512 63.3301V48.8349C67.1861 48.7976 65.7778 48.6409 64.5635 48.4699V44.1862H68.4966C69.0849 44.1862 70.1643 44.1614 71.4643 44.1315C73.4315 44.0863 75.9043 44.0296 77.9436 44.0296C86.2898 44.0296 90.802 46.7829 90.802 51.9806C90.8006 56.5747 86.8014 60.6731 78.4365 60.6731ZM78.0039 49.3709C77.8904 49.3709 77.5197 49.3709 77.1202 49.4241V55.8763C77.4967 55.9525 77.6763 55.9525 77.8387 55.9525C80.171 55.9525 82.2776 54.7655 82.2776 52.5223C82.2776 50.841 81.1453 49.3709 78.0039 49.3709Z" clip-rule="evenodd"/><path fill="#BC242A" fill-rule="evenodd" d="M91.9932 56.4353C91.9932 63.9596 96.7957 68.4502 106.546 68.4502C115.409 68.4502 122.366 63.4322 122.366 55.6737C122.366 47.0602 115.912 43.7149 107.825 43.7149C99.0719 43.7149 91.9932 48.7832 91.9932 56.4353ZM101.127 55.9525C101.127 51.4475 104.178 49.7158 107.142 49.7158C111.248 49.7158 113.231 51.8484 113.231 56.0244C113.231 61.0855 109.661 62.4751 106.973 62.4751C102.853 62.4751 101.127 60.0193 101.127 55.9525Z" clip-rule="evenodd"/><path fill="#BC242A" d="M143.916 52.0596C143.887 51.9151 143.857 51.7691 143.826 51.6217C143.695 50.9897 143.558 50.3302 143.488 49.6311H141.077V63.333C142.459 63.3891 143.88 63.5687 145.066 63.8101V67.9732H128.501V63.8101C129.698 63.5687 131.138 63.3862 132.532 63.333V49.6311H130.091C130.039 50.319 129.894 50.9685 129.755 51.5913C129.72 51.749 129.685 51.9052 129.652 52.0596H123.097V44.1862H150.483V52.0596H143.916Z"/><path fill="#BC242A" fill-rule="evenodd" d="M147.65 66.9959H147.953V66.1423H148.141C148.384 66.1423 148.528 66.2587 148.574 66.5073C148.578 66.5388 148.582 66.5694 148.586 66.5989C148.614 66.7986 148.635 66.9496 148.677 66.9959H149.002C148.982 66.9428 148.939 66.8019 148.871 66.5275C148.842 66.2329 148.736 66.059 148.585 66.059V66.0216C148.781 65.9656 148.939 65.832 148.939 65.5647C148.939 65.3735 148.873 65.237 148.781 65.1637C148.656 65.0617 148.46 64.9985 148.189 64.9985C147.994 64.9985 147.863 65.0155 147.729 65.0329C147.703 65.0363 147.677 65.0397 147.65 65.043V66.9959ZM148.163 65.9412H147.956V65.2615C147.98 65.2615 148.066 65.2586 148.163 65.2586C148.502 65.2586 148.631 65.421 148.631 65.5992C148.631 65.8319 148.433 65.9412 148.163 65.9412Z" clip-rule="evenodd"/><path fill="#BC242A" fill-rule="evenodd" d="M149.917 65.9857C149.917 65.0229 149.218 64.2282 148.26 64.2282H148.246C147.332 64.2282 146.563 65.0229 146.563 65.9857C146.563 66.9959 147.332 67.7346 148.246 67.7346C149.218 67.7346 149.917 66.9959 149.917 65.9857ZM146.907 65.9857C146.907 65.1637 147.529 64.5128 148.246 64.5128H148.259C149.031 64.5128 149.617 65.1637 149.617 66.003C149.617 66.789 149.034 67.473 148.259 67.473C147.529 67.473 146.907 66.789 146.907 65.9857Z" clip-rule="evenodd"/></g></g></svg>

<svg xmlns="http://www.w3.org/2000/svg" fill="none" aria-hidden="true" viewBox="0 0 156 75"><g fill="#BC242A"><path d="M59.422 11.363c.983 0 2.129.165 3.392.426l.516-5.771a30.216 30.216 0 0 0-4.787-.368c-8.148 0-11.76 3.124-11.76 9.31v1.972h-5.299v5.475h5.3v12.506c-1.687.152-3.472.36-4.95.592v4.614h18.458v-4.614a79.705 79.705 0 0 0-4.92-.592V22.407h5.949v-5.475h-5.95v-2.064c0-2.474 1.476-3.505 4.051-3.505Z"/><path fill-rule="evenodd" d="M3.9 24.748c0 9.892 5.765 15.98 17.586 15.98 10.587 0 18.952-6.49 18.953-16.83 0-11.057-7.524-15.857-17.602-15.857C12.45 8.04 3.9 14.519 3.9 24.748Zm9.356-.567c0-6.616 4.303-9.524 8.907-9.524 5.847 0 8.921 3.338 8.922 9.66 0 7.189-4.921 9.75-9.06 9.75-6.067 0-8.769-3.857-8.769-9.886Z" clip-rule="evenodd"/><path d="M84.605 11.789c-1.31-.26-2.47-.426-3.42-.426-2.602 0-4.06 1.03-4.06 3.505v2.064h5.889v5.475h-5.89v12.506c1.668.152 3.441.36 4.923.592v4.614H63.623v-4.614a78.164 78.164 0 0 1 4.917-.592V22.407h-5.31v-5.475h5.307V14.96c0-6.186 3.636-9.31 11.76-9.31a30.1 30.1 0 0 1 4.79.368l-.483 5.77Zm.433 23.716v4.612h18.048v-4.613c-1.296-.233-2.963-.44-4.531-.592V16.915a104.55 104.55 0 0 0-13.517.42V21.9c1.634.055 3.577.254 4.886.431v12.581c-1.665.152-3.4.36-4.886.592Zm3.966-25.185c0 2.33 2.376 4.199 5.248 4.199 2.91 0 5.273-1.907 5.273-4.199 0-2.357-2.363-4.196-5.273-4.196-2.872 0-5.248 1.84-5.248 4.196Zm27.8 30.258c-9.045 0-13.985-3.814-13.985-11.32 0-6.992 4.477-12.78 15.212-12.78 2.108 0 4.434.277 6.445.751v7.944h-5.536a45.229 45.229 0 0 1-.343-1.683c-.06-.318-.118-.626-.18-.922-.416-.153-.99-.163-1.539-.163-2.987 0-5.126 2.19-5.126 6 0 3.963 1.942 6.03 6.973 6.03 1.762 0 3.74-.325 5.384-.926l.585 6.15c-2.561.596-4.893.919-7.89.919Z"/><path fill-rule="evenodd" d="M135.109 30.271h16.744c.164-1.122.25-2.12.247-3.095 0-6.097-3.721-10.808-12.2-10.808-8.684 0-13.501 5.283-13.501 12.403 0 8.127 5.071 11.887 14.323 11.887 3.447 0 7.229-.541 10.388-1.608l-.781-5.38c-2.613.97-5.489 1.457-8.268 1.457-4.64 0-6.872-1.749-6.952-4.856Zm.08-4.72c.208-2.39 2.01-3.986 4.488-3.986 2.496 0 4.078 1.402 3.983 3.986h-8.471ZM22.643 68.18c-2.09 0-4.993-.083-7.142-.145h-.004c-1.26-.036-2.258-.065-2.68-.065h-4.06v-4.163a26.554 26.554 0 0 1 4.06-.477V48.835a35.105 35.105 0 0 1-4.06-.365v-4.284h3.831c1.097 0 2.521-.02 4.145-.043h.002c2.157-.03 4.667-.066 7.236-.066 9.11 0 15.473 2.851 15.473 11.457 0 8.09-6.692 12.646-16.801 12.646Zm.878-18.573c-1.002 0-1.512 0-2.147.095v12.711c.35.065.96.078 1.972.078 3.816 0 6.856-2.012 6.856-6.467.001-3.69-.969-6.417-6.681-6.417Z" clip-rule="evenodd"/><path d="M39.212 63.807v4.163h22.965v-6.666h-6.773c-.054.268-.094.451-.131.623-.052.236-.099.45-.17.828h-3.31V58.13h2.782l.026.105c.083.334.116.465.279.819h5.66v-6.456h-5.66a4.48 4.48 0 0 0-.305.973h-2.782v-4.2h3.29c.095.493.143.726.303 1.32h6.65v-6.505H39.212v4.284c1.183.174 2.616.328 4.01.365V63.33a25.999 25.999 0 0 0-4.01.477Z"/><path fill-rule="evenodd" d="M78.436 60.673c-.19 0-.714 0-1.316-.023v2.68c1.401.056 2.815.236 4.038.477v4.163H64.564v-4.163a26.652 26.652 0 0 1 3.987-.477V48.835c-1.365-.037-2.773-.194-3.987-.365v-4.284h3.933c.588 0 1.667-.025 2.967-.054 1.968-.046 4.44-.102 6.48-.102 8.346 0 12.858 2.753 12.858 7.95-.001 4.595-4 8.693-12.366 8.693Zm-.432-11.302c-.114 0-.484 0-.884.053v6.452c.377.077.556.077.719.077 2.332 0 4.439-1.188 4.439-3.43 0-1.682-1.133-3.152-4.274-3.152Zm13.989 7.064c0 7.525 4.803 12.015 14.553 12.015 8.863 0 15.82-5.018 15.82-12.776 0-8.614-6.454-11.96-14.541-11.96-8.753 0-15.832 5.07-15.832 12.721Zm9.134-.483c0-4.505 3.051-6.236 6.015-6.236 4.106 0 6.089 2.132 6.089 6.308 0 5.062-3.57 6.451-6.258 6.451-4.12 0-5.846-2.456-5.846-6.523Z" clip-rule="evenodd"/><path d="M143.916 52.06a48.44 48.44 0 0 0-.09-.438c-.131-.632-.268-1.292-.338-1.99h-2.411v13.701c1.382.056 2.803.236 3.989.477v4.163h-16.565V63.81a26.16 26.16 0 0 1 4.031-.477V49.631h-2.441c-.052.688-.197 1.337-.336 1.96-.035.158-.07.314-.103.469h-6.555v-7.874h27.386v7.874h-6.567Z"/><path fill-rule="evenodd" d="M147.65 66.996h.303v-.854h.188c.243 0 .387.117.433.365l.012.092c.028.2.049.35.091.397h.325a5.181 5.181 0 0 1-.131-.468c-.029-.295-.135-.469-.286-.469v-.037c.196-.056.354-.19.354-.457 0-.191-.066-.328-.158-.401-.125-.102-.321-.165-.592-.165-.195 0-.326.017-.46.034l-.079.01v1.953Zm.513-1.055h-.207v-.68l.207-.002c.339 0 .468.162.468.34 0 .233-.198.342-.468.342Z" clip-rule="evenodd"/><path fill-rule="evenodd" d="M149.917 65.986c0-.963-.699-1.758-1.657-1.758h-.014c-.914 0-1.683.795-1.683 1.758 0 1.01.769 1.749 1.683 1.749.972 0 1.671-.74 1.671-1.75Zm-3.01 0c0-.822.622-1.473 1.339-1.473h.013c.772 0 1.358.65 1.358 1.49 0 .786-.583 1.47-1.358 1.47-.73 0-1.352-.684-1.352-1.487Z" clip-rule="evenodd"/></g></svg>
